X:18
T:18 Baker's Frolic
C:Aylmore MS
I:abc2nwc
M:2/4
L:1/16
K:C
C2c2G2E2|C2c2G2E2|D2E2F2D2|C2B,2A,2G,2|C2c2G2E2|C2c2G2E2|A2F2D2B,2|C6z2:|
G,2B,2D2B,2|G,2C2E2C2|D2E2F2D2|C2B,2A,2G,2|C2c2G2E2|C2c2G2E2|A2F2D2B,2|C6z2:|


